kuma/static/img/dino-confuse.svg

<?xml version="1.0" encoding="UTF-8"?>
<svg width="146px" height="133px" viewBox="0 0 146 133" version="1.1" xmlns="http://www.w3.org/2000/svg" xmlns:xlink="http://www.w3.org/1999/xlink">
    <!-- Generator: Sketch 55.2 (78181) - https://sketchapp.com -->
    <title>Group 11</title>
    <desc>Created with Sketch.</desc>
    <g id="Signalling-FInal-Designs" stroke="none" stroke-width="1" fill="none" fill-rule="evenodd">
        <g id="Signalling---Step-1" transform="translate(-492.000000, -531.000000)" fill="#3D7E9A">
            <g id="Group-11" transform="translate(492.000000, 531.000000)">
                <path d="M32.9825564,40.2594484 L31.040009,35.674837 L25.9224575,41.0549892 C25.9224575,41.0549892 21.5884546,45.8856441 21.4741871,47.5997475 C21.3599196,49.3138508 27.5140405,44.9506786 27.5140405,44.9506786 L32.9825564,40.2594484 Z M63.5001398,34.6496555 L65.6630603,32.4762709 L51.2000601,28.8102221 C50.9715251,29.154683 50.1798146,32.7059115 50.1798146,32.7059115 L63.5001398,34.6496555 Z M15.2629325,93.5032715 C15.4343338,93.4130556 18.2910212,91.8465783 21.7843418,91.0510375 C25.3919299,90.2308924 29.9463058,89.4107472 29.9463058,89.4107472 C29.9463058,89.4107472 28.1996455,94.0445673 27.4977166,95.9719084 C26.7957877,97.8992495 25.8653238,103.353215 25.8653238,103.353215 C25.8653238,103.353215 26.6815202,102.53307 29.1301094,101.712924 C31.5786986,100.892779 34.0272878,101.712924 34.0272878,101.712924 C34.0272878,101.712924 35.3740118,104.001129 35.6596806,106.633795 C35.9453493,109.266461 34.8434842,113.194957 34.8434842,113.194957 C34.8434842,113.194957 21.4741871,106.633795 17.7033598,104.17336 C13.9325324,101.712924 7.01118689,96.3327723 3.01182452,85.3100215 C-0.987537843,74.2872707 -2.44036744,51.0115513 7.90900293,34.4610222 C18.2583733,17.910493 48.8086046,-0.600183 76.4695007,0.0149258625 C104.130397,0.630034725 130.126252,19.8870428 138.500427,40.2020382 C146.874602,60.5170336 148.236834,83.2842629 142.581409,95.9719084 C136.925168,108.659554 124.657736,123.569793 117.279321,127.137424 C109.900905,130.705056 95.3889333,133.641175 86.2638575,132.87844 C77.1387817,132.115705 69.1237331,128.777714 69.1237331,128.777714 C69.1237331,128.777714 80.925933,128.605484 86.2638575,128.777714 C91.601782,128.949945 94.9318633,128.720304 98.5068035,127.957569 C102.081744,127.194834 106.668768,120.576263 106.668768,120.576263 C106.668768,120.576263 116.120322,101.483284 117.279321,97.6121987 C118.43832,93.7411136 117.369102,88.6644151 114.830732,83.6697312 C112.341333,78.7652632 102.946912,77.1659801 102.595947,77.1167714 C102.636757,77.1495772 102.751025,77.2561961 102.930588,77.4284266 L100.759506,78.0517369 C100.588104,77.9779238 100.384055,77.9369166 100.139196,77.9287151 C99.8453656,77.9205137 99.5760208,77.9369166 99.306676,77.9779238 L99.1026269,76.5016626 C99.8780135,76.4360509 100.522809,76.3622379 100.955393,76.2884248 C102.987722,75.927561 104.048777,74.2462634 104.220178,71.3675539 C104.39158,68.4888444 99.3719717,41.5142705 98.5068035,39.3818931 C97.6416353,37.2495157 94.8175958,34.9941165 91.1610359,36.1013125 C87.504476,37.2085084 71.8171812,42.432833 69.1237331,42.6624737 C66.4302849,42.8921143 63.4103582,42.6624737 63.4103582,42.6624737 C63.4103582,42.6624737 62.0228244,37.7416028 58.5131798,36.9214576 C55.0035353,36.1013125 52.9059106,38.1926826 51.9836086,40.2020382 C51.0613067,42.2113938 48.6943371,47.4685242 44.637841,48.4034897 C40.5813449,49.3384552 35.3740118,44.376577 32.394895,45.1229091 C29.4157781,45.8692412 28.8770885,49.5270886 27.4977166,52.5042155 C26.1183447,55.4813424 21.7843418,60.705667 21.7843418,60.705667 L10.3575921,77.10857 L23.4167346,76.2884248 L15.2629325,93.5032715 Z" id="Fill-1"></path>
                <path d="M99.955331,97.4815295 C100.183875,97.2916671 103.791601,94.2621242 104.844535,94.1878302 C105.930118,94.1135363 108.656319,94.6088294 108.925674,95.8388073 C109.195029,97.0687852 106.607587,102.550029 104.844535,106.570158 C103.081483,110.590287 97.041398,118.911212 94.2335746,119.777975 C91.4257511,120.644738 85.7611306,118.795644 81.1739307,117.301509 C76.5867308,115.807375 64.0331481,111.52309 64.0331481,111.52309 C64.0331481,111.52309 63.4373018,102.550029 67.2980591,97.4897844 C71.1588163,92.4295396 79.5006638,88.8469194 84.4388417,87.5839219 C89.3770195,86.3209245 96.6822578,85.3881224 99.130941,84.2819678 C101.367405,83.2748718 103.187593,79.3620561 101.38373,78.6273713 L103.554895,78 C104.485395,78.9080374 107.072837,81.5330909 108.101284,83.7949295 C109.366437,86.568571 108.925674,88.4094105 108.925674,88.4094105 C108.925674,88.4094105 104.917996,89.0780562 103.21208,90.8858761 C101.555137,92.6441667 100.028792,97.2421378 99.955331,97.4815295" id="Fill-3"></path>
                <path d="M99.7943754,76.8802971 L100,78.3128738 C97.7216799,78.6153066 96.2000582,80.3821511 92.6139659,80.6527489 C88.6001745,80.9551818 84.9236074,77.3578227 75.3415029,77.4692453 C65.7593985,77.5806679 59.7140365,84.6321285 59.7140365,84.6321285 C59.7140365,84.6321285 57.3781415,85.4598394 56.4240435,84.6321285 C55.4699456,83.8044175 56.4240435,82.2445007 56.4240435,82.2445007 C56.4240435,82.2445007 64.5667761,75.4875143 72.05151,74.2857417 C79.5362439,73.083969 85.6062809,76.0207511 89.3239729,76.6733694 C92.2438416,77.18273 96.9320816,77.1111011 99.7943754,76.8802971" id="Fill-5"></path>
                <path d="M57.4958872,42 C59.4371328,42 61,44.2354949 61,47 C61,49.7645051 59.4371328,52 57.4958872,52 C55.5628672,52 54,49.7645051 54,47 C54,44.2354949 55.5628672,42 57.4958872,42" id="Fill-7"></path>
                <path d="M34.5,51 C36.4307512,51 38,53.2440273 38,56 C38,58.7645051 36.4307512,61 34.5,61 C32.5692488,61 31,58.7645051 31,56 C31,53.2440273 32.5692488,51 34.5,51" id="Fill-9"></path>
            </g>
        </g>
    </g>
</svg>

<svg width="146" height="133" xmlns="http://www.w3.org/2000/svg"><g fill="#3D7E9A" fill-rule="evenodd"><path d="M32.983 40.26l-1.943-4.585-5.118 5.38s-4.334 4.83-4.448 6.545c-.114 1.714 6.04-2.65 6.04-2.65l5.469-4.69zM63.5 34.65l2.163-2.174L51.2 28.81c-.228.345-1.02 3.896-1.02 3.896L63.5 34.65zM15.263 93.503c.171-.09 3.028-1.656 6.521-2.452 3.608-.82 8.162-1.64 8.162-1.64s-1.746 4.634-2.448 6.56c-.702 1.928-1.633 7.382-1.633 7.382s.817-.82 3.265-1.64c2.449-.82 4.897 0 4.897 0s1.347 2.288 1.633 4.92c.285 2.633-.817 6.562-.817 6.562s-13.369-6.561-17.14-9.022c-3.77-2.46-10.692-7.84-14.691-18.863-4-11.023-5.452-34.298 4.897-50.849C18.259 17.911 48.809-.6 76.469.015 104.13.63 130.127 19.887 138.5 40.202c8.375 20.315 9.737 43.082 4.081 55.77-5.656 12.688-17.923 27.598-25.302 31.165-7.378 3.568-21.89 6.504-31.015 5.741-9.125-.762-17.14-4.1-17.14-4.1s11.802-.173 17.14 0c5.338.172 8.668-.058 12.243-.82 3.575-.763 8.162-7.382 8.162-7.382s9.451-19.093 10.61-22.964c1.16-3.87.09-8.948-2.448-13.942-2.49-4.905-11.884-6.504-12.235-6.553.04.033.155.14.335.311l-2.171.624a1.701 1.701 0 0 0-.62-.123 4.592 4.592 0 0 0-.833.049l-.204-1.476c.775-.066 1.42-.14 1.852-.214 2.033-.36 3.094-2.042 3.265-4.92.172-2.88-4.848-29.854-5.713-31.986-.865-2.132-3.69-4.388-7.346-3.28-3.657 1.107-19.344 6.33-22.037 6.56-2.694.23-5.714 0-5.714 0s-1.387-4.92-4.897-5.74c-3.51-.82-5.607 1.27-6.53 3.28-.922 2.01-3.289 7.267-7.345 8.201-4.057.935-9.264-4.026-12.243-3.28-2.98.746-3.518 4.404-4.897 7.381-1.38 2.977-5.714 8.202-5.714 8.202L10.358 77.109l13.059-.82-8.154 17.214z"/><path d="M99.955 97.482c.229-.19 3.837-3.22 4.89-3.294 1.085-.074 3.811.42 4.08 1.65.27 1.23-2.317 6.712-4.08 10.732-1.764 4.02-7.804 12.341-10.611 13.208-2.808.867-8.473-.982-13.06-2.476-4.587-1.495-17.14-5.779-17.14-5.779s-.597-8.973 3.264-14.033c3.86-5.06 12.203-8.643 17.14-9.906 4.939-1.263 12.244-2.196 14.693-3.302 2.236-1.007 4.057-4.92 2.253-5.655l2.17-.627c.931.908 3.519 3.533 4.547 5.795 1.265 2.774.825 4.614.825 4.614s-4.008.67-5.714 2.477c-1.657 1.758-3.183 6.356-3.257 6.596M99.794 76.88l.206 1.433c-2.278.302-3.8 2.07-7.386 2.34-4.014.302-7.69-3.295-17.272-3.184-9.583.112-15.628 7.163-15.628 7.163s-2.336.828-3.29 0c-.954-.828 0-2.387 0-2.387s8.143-6.757 15.628-7.96c7.484-1.201 13.554 1.736 17.272 2.388 2.92.51 7.608.438 10.47.207M57.496 42C59.437 42 61 44.235 61 47s-1.563 5-3.504 5C55.563 52 54 49.765 54 47s1.563-5 3.496-5M34.5 51c1.93 0 3.5 2.244 3.5 5 0 2.765-1.57 5-3.5 5S31 58.765 31 56c0-2.756 1.57-5 3.5-5"/></g></svg>
